images/svg/tile.svg

<svg xmlns="http://www.w3.org/2000/svg" width="32" height="32" viewBox="0 0 32 32"><path fill="#666" d="M9.589 14.041h5.971v-5.969h-5.971v5.969zm9.454-5.969v5.969h5.971v-5.969h-5.971zm-9.454 15.248h5.971v-5.97h-5.971v5.97zm9.454 0h5.971v-5.97h-5.971v5.97z"/></svg>

<?xml version="1.0" encoding="utf-8"?>
<!-- Generator: Adobe Illustrator 16.0.0, SVG Export Plug-In . SVG Version: 6.00 Build 0)  -->
<!DOCTYPE svg PUBLIC "-//W3C//DTD SVG 1.1//EN" "http://www.w3.org/Graphics/SVG/1.1/DTD/svg11.dtd">
<svg version="1.1" id="Layer_1" xmlns="http://www.w3.org/2000/svg" xmlns:xlink="http://www.w3.org/1999/xlink" x="0px" y="0px"
	 width="32px" height="32px" viewBox="0 0 32 32" enable-background="new 0 0 32 32" xml:space="preserve">
<path fill="#666666" d="M9.589,14.041h5.971V8.072H9.589V14.041z M19.043,8.072v5.969h5.971V8.072H19.043z M9.589,23.32h5.971v-5.97
	H9.589V23.32z M19.043,23.32h5.971v-5.97h-5.971V23.32z"/>
</svg>
